Images/footer-social-icon-facebook.svg

<svg width="30" height="30" viewBox="0 0 30 30" fill="none" xmlns="http://www.w3.org/2000/svg">
<path d="M28.8 0H1.2C0.53625 0 0 0.53625 0 1.2V28.8C0 29.4638 0.53625 30 1.2 30H28.8C29.4638 30 30 29.4638 30 28.8V1.2C30 0.53625 29.4638 0 28.8 0ZM27.6 27.6H20.6963V18.3825H24.5963L25.1813 13.8563H20.6963V10.965C20.6963 9.6525 21.06 8.76 22.9388 8.76H25.335V4.71C24.9187 4.65375 23.4975 4.53 21.84 4.53C18.3825 4.53 16.0163 6.64125 16.0163 10.515V13.8525H12.1088V18.3787H16.02V27.6H2.4V2.4H27.6V27.6Z" fill="white" fill-opacity="0.9"/>
</svg>

<svg xmlns="http://www.w3.org/2000/svg" width="30" height="30" fill="none" xmlns:v="https://vecta.io/nano"><path d="M28.8 0H1.2A1.2 1.2 0 0 0 0 1.2v27.6A1.2 1.2 0 0 0 1.2 30h27.6a1.2 1.2 0 0 0 1.2-1.2V1.2A1.2 1.2 0 0 0 28.8 0zm-1.2 27.6h-6.904v-9.218h3.9l.585-4.526h-4.485v-2.891c0-1.312.364-2.205 2.242-2.205h2.396V4.71c-.416-.056-1.838-.18-3.495-.18-3.457 0-5.824 2.111-5.824 5.985v3.337h-3.908v4.526h3.911V27.6H2.4V2.4h25.2v25.2z" fill="#fff" fill-opacity=".9"/></svg>
